!!!OTL@@FUR: Se savessis, fantazzinis
!!!OTL@IT: Se sapeste, ragazzine
!!!OTL@EN: If you but knew
**kern
*clefG2
*k[f#c#]
*D:
*M3/4
*MM60
*>[A,A]
*>A
4f#
4g
=1
2a
4a
=2
2a
4a
=3
4b
[2a
4a]
4f#
4g
=4
2a
4a
=5
2b
4dd
=6
[2.cc#
=7
8cc#]
8r
4g
4a
=8
2b
4b
=9
2cc#
4cc#
=10
2dd
4dd
=11
2dd
4dd
=12
2b
4ee
4cc#
4b
4cc#
=13
[2.dd
=14
4dd]
==:|!
*-
!!!ARE: Friuli
!!!ENC: Kelly Leistikow
!!!END: 2002/03/07
!!!ref: @{OTL@@FUR}/@{OTL@EN}
